X:0943
T:Miss Bain's Strathsy.
M:C
L:1/8
Q:1/4=120
I: :: ||
N:bar 10 is printed |fcd>A FDAf| but the first f has both a dot and a double tail
N:at least one of these notes must have the wrong pitch too
Z:Jack Campin * www.campin.me.uk * 2009
K:E Minor
B   |E/E/E E>F  G>AB>d|D/D/D AD  FDAD|E/E/E E>F G>ABG|BE`E^D E2E:|
e/f/|g>e```f<^d e2 B>e|d>B```Ad  FDAD|ef````ed  B^def|g>eB^d eBef|
     g<e```fd   e2 Be |f<c```d>A FDAf|gd````eB  d`GAB|GE`E^D E2E|]

